X:1
T:Title
%%score { ( 1 3 ) | ( 2 4 5 ) }
L:1/8
M:3/2
K:B
V:1 treble nm="Grand Piano"
V:3 treble 
V:2 bass 
V:4 bass 
V:5 bass 
V:1
 z4 z4 [DF]2 [DF]2 | [DF]6 [DG]2 [DB]2 [DA]2 | [B,EG]4 [A,EF]4 [A,EF]2 [A,EF]2 | %3
 F4- [DF]2 [DG]2 [DB]2 [DA]2 |[M:4/4] E4- [EF]4 |[M:2/4] F2 F2 |[M:6/4] z4 D2 G2 A2 B2 | %7
 z4 c2- c2 z2 z2 | [CFA]2 [=DFA]2 [^DFB]2- [DFB]2 [B,^EG]4 | [CF]12 | %10
 [A,EF]2 [B,EG]2 [CEA]2 [DFB]2 [EGc]2 [DFB]2 | [DFB]4 [CFA]2- [CFA]2 [GBe]2 [FAd]2 | %12
 [EGc]2 B2 A2- A2 G4 | c12 | F2 G2 F2 B2 c2 B2 | e4 E2- E2 E2 E2 | D2 F2 G2- G2 c4 | %17
[M:4/4] [DB]8 |] %18
V:2
 z4 z4 [B,,B,]2 [B,,B,]2 | z4 B,4 z4 | C,4 F,4 F,2 F,2 | z4 B,4 z4 |[M:4/4] C,4 [F,A,]4 | %5
[M:2/4] [F,A,E]2 [F,A,E]2 |[M:6/4][K:treble] .[B,E]6 [B,D]2 [A,B,D]2 [G,B,D]2 | z4 F2 z6[K:bass] | %8
 C,2 C,2 C,2- C,2 C,4 | z4 A,2- A,4- A,3/2 z/ | F,2 F,2 F,2 F,2 F,2 F,2 | F,4 F,2- F,2 F,2 F,2 | %12
 F,2 [F,DF]2 [F,CE]2- [F,CE]2 [F,B,^E]4 | [F,E]12 | %14
 [=A,B,D]2 [A,B,D]2 [A,B,D]2 [A,B,D]2 [A,B,D]2 [A,B,D]2 | %15
 [G,B,E]4 [^^F,B,]2- [F,B,]2 [F,B,]2 [F,B,C]2 | [F,B,]2 [F,B,D]2 [F,B,E]2- [F,B,E]2 [F,A,E]4 | %17
[M:4/4] [B,,B,]8 |] %18
V:3
 x12 | z4 z4 B,4 | x12 | .[B,E]4 z4 B,4 |[M:4/4] [B,G]4 z4 |[M:2/4] x4 |[M:6/4] F6 z6 | %7
 .d6 ^E2 [D^^Fc]2 [DGB]2 | x12 | .B,6 z6 | x12 | x12 | x12 | z4 A,2- A,4- A,3/2 z/ | x12 | x12 | %16
 x12 |[M:4/4] x8 |] %18
V:4
 x12 | B,2 B,2 z2 B,,2 B,,2 B,,2 | x12 | z2 B,2 z2 B,,2 B,,2 B,,2 |[M:4/4] x8 |[M:2/4] x4 | %6
[M:6/4][K:treble] x12 | [G,B,^E]4 [A,C]2- [A,C]2[K:bass] B,,2 B,,2 | x12 | F,12 | x12 | x12 | x12 | %13
 .B,6 z6 | x12 | x12 | x12 |[M:4/4] x8 |] %18
V:5
 x12 | B,,8 z4 | x12 | B,,8 z4 |[M:4/4] x8 |[M:2/4] x4 |[M:6/4][K:treble] x12 | x8[K:bass] x4 | %8
 x12 | x12 | x12 | x12 | x12 | x12 | x12 | x12 | x12 |[M:4/4] x8 |] %18

